X:40
T:Feder Fele (Vals)
%A:Sweden
R:Waltz
Z:copied by Bob Wyttenbach 8/16/02 from NFF 2002 tunebook
M:3/4 
L:1/4 
%Q:1/4=160
K:A %Transposed from G
P:A
uE/ A/B/|:c>Bc|A2E|F>AF|E2E|(F/E/) F/G/A|c>B A/c/|B>E A/B/|
c>Bc|A2E|F>AF|E2E|(F/E/) F/G/A|B>B A/G/|[1A3-|A>E A/B/:|[2A3-|A(GA)||
P:B
B>BB|Bcd|c>Bc|A>(B c/)e/|f>g f/e/|c>B A/c/|cB2-|B>E A/B/|
c>Bc|A2E|F>AF|E2E|(F/E/) F/G/A|B>B A/G/|[1A3-|A(GA):|[2A3-|A>zz||
